www/assets/images/src/icon_lock.svg

<svg fill="none" height="24" viewBox="0 0 24 24" width="24" xmlns="http://www.w3.org/2000/svg"><path d="m9 7c0-1.65686 1.3431-3 3-3s3 1.34314 3 3v2h2v-2c0-2.76141-2.2386-5-5-5-2.76141 0-5 2.23859-5 5v2h2z" fill="#1e5a09"/><path d="m17 9h-10c-1.65686 0-3 1.3431-3 3v7c0 1.6569 1.34314 3 3 3h10c1.6569 0 3-1.3431 3-3v-7c0-1.6569-1.3431-3-3-3zm-4 8c.0001.5521-.4473.9999-.9994 1-.5522.0001-1.0005-.4473-1.0006-.9995v-3.0005c0-.5523.4477-1 1-1s1 .4477 1 1z" fill="#4e8e37"/></svg>

<svg width="24" height="24" viewBox="0 0 24 24" fill="none" xmlns="http://www.w3.org/2000/svg">
<path d="M9 7C9 5.34314 10.3431 4 12 4C13.6569 4 15 5.34314 15 7V9H17V7C17 4.23859 14.7614 2 12 2C9.23859 2 7 4.23859 7 7V9H9V7Z" fill="#1E5A09"/>
<path d="M17 9H7C5.34314 9 4 10.3431 4 12V19C4 20.6569 5.34314 22 7 22H17C18.6569 22 20 20.6569 20 19V12C20 10.3431 18.6569 9 17 9ZM13 17C13.0001 17.5521 12.5527 17.9999 12.0006 18C12.0007 18 12.0004 18 12.0006 18C11.4484 18.0001 11.0001 17.5527 11 17.0005C11 17.0007 11 17.0004 11 17.0005V14C11 13.4477 11.4477 13 12 13C12.5523 13 13 13.4477 13 14V17Z" fill="#4E8E37"/>
</svg>
